X: 2373
T:The ffarther be in the welcomer
M:4/4
L:1/8
S:Henry Atkinson 1694/5 transcribed John Stokoe 1884
N:The clef and (possibly) key signature are missing, though more probably
N:either no key signature was intended or has been omitted by HA/JS.  1st
N:notes of bars 5, 13,17 and 21 are missing.  3rd note of bar 11 has a
N:faint 'D' written above, which may be either an alternative or a
N:partially erased mistake.  The first two notes of the tune also have
N:faint 'F' and 'G' above them.  It is possible that the 3th note of bar
N:14 has a faint 'A' above it
K:C major
DE/F/|D3A BAFA|c2C2C2DE/2F/2|D3A BAFA|GFEDd2cB|ABcd efde|c2C2C2FE|DEFG A
BGA|^F2D2D2:||:d2D2d2D2|d2C2C2Bc|d2D2A2D2|d2D2A2D2|d2D2A2D2|c2C2C2FE
|DEFG ABGA|^F2D2D2FE|d3a fgaf|egcg ecge|defd efge|agfe defd|ABcd  efde|c
2C2C2FE|DEFG ABGA|^F2D2D2||
